X:7
T: Da unser Herr Jesus am Tischlein saá (Band 1), S. 26
N: P0781
O: Lothringen
S: PINCK, Louis: Verklingende Weisen, Bd 1, Metz 1928]
R: geistliche, religiöse Lieder]
M: 3/4
L: 1/16
K: D
D2F2 | A4d4A4 | F4D4B4 | A6G2A4 | E4z4
G4 | F4G4F2E2 | D3DE4F4 | A4F4E4 | D8

